svgs/regular/ballot.svg

<svg xmlns="http://www.w3.org/2000/svg" viewBox="0 0 448 512"><!-- Font Awesome Pro 6.0.0-alpha2 by @fontawesome - https://fontawesome.com License - https://fontawesome.com/license (Commercial License) --><path d="M128 352H96C87.164 352 80 359.164 80 368V400C80 408.836 87.164 416 96 416H128C136.836 416 144 408.836 144 400V368C144 359.164 136.836 352 128 352ZM128 224H96C87.164 224 80 231.164 80 240V272C80 280.836 87.164 288 96 288H128C136.836 288 144 280.836 144 272V240C144 231.164 136.836 224 128 224ZM128 96H96C87.164 96 80 103.164 80 112V144C80 152.836 87.164 160 96 160H128C136.836 160 144 152.836 144 144V112C144 103.164 136.836 96 128 96ZM384 0H64C28.654 0 0 28.652 0 64V448C0 483.348 28.654 512 64 512H384C419.346 512 448 483.348 448 448V64C448 28.652 419.346 0 384 0ZM400 448C400 456.824 392.822 464 384 464H64C55.178 464 48 456.824 48 448V64C48 55.176 55.178 48 64 48H384C392.822 48 400 55.176 400 64V448ZM344 104H200C186.75 104 176 114.75 176 128S186.75 152 200 152H344C357.25 152 368 141.25 368 128S357.25 104 344 104ZM344 232H200C186.75 232 176 242.75 176 256S186.75 280 200 280H344C357.25 280 368 269.25 368 256S357.25 232 344 232ZM344 360H200C186.75 360 176 370.75 176 384S186.75 408 200 408H344C357.25 408 368 397.25 368 384S357.25 360 344 360Z"/></svg>

<svg xmlns="http://www.w3.org/2000/svg" viewBox="0 0 448 512"><!--! Font Awesome Pro 6.0.0-alpha3 by @fontawesome - https://fontawesome.com License - https://fontawesome.com/license (Commercial License) --><path d="M128 352H96c-8.836 0-16 7.164-16 16v32C80 408.8 87.16 416 96 416h32c8.836 0 16-7.164 16-16v-32C144 359.2 136.8 352 128 352zM128 224H96C87.16 224 80 231.2 80 240v32C80 280.8 87.16 288 96 288h32c8.836 0 16-7.164 16-16v-32C144 231.2 136.8 224 128 224zM128 96H96C87.16 96 80 103.2 80 112v32C80 152.8 87.16 160 96 160h32c8.836 0 16-7.164 16-16v-32C144 103.2 136.8 96 128 96zM384 0H64C28.65 0 0 28.65 0 64v384c0 35.35 28.65 64 64 64h320c35.35 0 64-28.65 64-64V64C448 28.65 419.3 0 384 0zM400 448c0 8.824-7.178 16-16 16H64c-8.822 0-16-7.176-16-16V64c0-8.824 7.178-16 16-16h320c8.822 0 16 7.176 16 16V448zM344 104h-144C186.8 104 176 114.8 176 128s10.75 24 24 24h144c13.25 0 24-10.75 24-24S357.3 104 344 104zM344 232h-144C186.8 232 176 242.8 176 256s10.75 24 24 24h144c13.25 0 24-10.75 24-24S357.3 232 344 232zM344 360h-144c-13.25 0-24 10.75-24 24s10.75 24 24 24h144c13.25 0 24-10.75 24-24S357.3 360 344 360z"/></svg>
